X:65
T:Braes of Balquhidder
R:Reel
B:The Athole Collection
M:C|
L:1/8
K:F
c|A/B/c Fc A2 AB|A/B/c Fc AGGB|A/B/c Fc A2 Ac|defd cAA:|
c|defd cAag|fdcA AGGc|defd cAfg|agfd cAAc|defd caga|~fdcA AGGA|
FCA,C FGAc|defd cAA||
|:c|dFcF A2Ac|dFcF AGGc|dFcF A2Ac|defd cAA:|
c|defd cAag|fdcA AGGc|defd cAfg|agfc A2Ac|defd caga|fdcA AGGA|
FCA,C FGAc|defd cAA||

